X:1
T:Hampshire, 87.87
T:Hampshire, 87.87
T:Alfred Theodore Schauffler, 1898
T:Public Domain Courtesy of the Cyber Hymnal™
C:Alfred Theodore Schauffler, 1898
Z:Public Domain
Z:Courtesy of the Cyber Hymnal™
%%score ( 1 2 ) ( 3 4 )
L:1/8
Q:1/4=96
M:3/4
K:G
V:1 treble 
V:2 treble 
V:3 bass 
V:4 bass 
V:1
 G[GA] | [GB]3 [Gd] [Fc][GB] | (BA) G2 [GB][Ac] | [Bd]3 [GB] [Ge][Ec] | [FA]4 [FA][GB] | %5
 [Ac]3 [Fe] [Gd][Ac] | (dc) [DB]2 [EA][EB] | [Ec]3 [EA] [DG][DF] | [DG]4 |] %9
V:2
 G x | x6 | F2 G2 x2 | x6 | x6 | x6 | G2 x4 | x6 | x4 |] %9
V:3
 [G,B,][G,C] | [G,D]3 [G,B,] [D,C][D,D] | ([D,D][^D,C]) [E,B,]2 [B,,=D][A,,D] | %3
 [G,,D]3 [G,,D] [C,C][C,C] | [D,C]4 [D,A,][D,G,] | [D,F,]3 [D,C] [D,B,][D,A,] | %6
 (B,A,) G,2 [C,A,][B,,G,] | [A,,A,]3 [A,,C] [D,B,][D,A,] | [G,,B,]4 |] %9
V:4
 x2 | x6 | x6 | x6 | x6 | x6 | G,2 G,2 x2 | x6 | x4 |] %9

